X:59
T:Rosetree,The. JBs.059
S:Jas.Blackshaw MS, 1837, N.Shropshire
Z:T. Weatherall 2006
M:2/4
L:1/8
Q:1/4=100
A:North Shropshire
R:Country Dance
K:C
(e/d/)|cA GE|G2GG|cc de|(fd) (de/f/)|!
(dc/A/) GE|G2GG|cc â€œ*â€d/e/f/d/|ecc:|!
|:d| (e>d ef)|g2 fe|da ag|ad dâ€*â€ (f/d/)|!
cA GE|G2â€³*â€GG|cc d/e/f/d/|ec â€œ*â€c:|

